X: 20781
M: 6/8
L: 1/8
K: C
V: 1 name="1"
g |\
gfe gfe | gc'c' c'2g | gec gec | GGG G2g |\
gfe gfe gc'c' c'2G | BGC G,G,G, | CCC "^D.C."C2 |]
K: F
c |\
c2B A2B | A2G F2G | ABA cBA | GGG G2c |\
c2B A2B | A2G F2G | AcF GFG | FFF "^D.C."F2 |]


